X: 1
T: Milky Way, The
M: 4/4
L: 1/8
R: reel
K: D Major
|: D2 ED FAAB | d2 fd efdB | D2 ED FAAd | BF~F2 BFAF |
D2 ED FAAB | dffd ef d2 | efdB BAFB |[1 AFEG FDDE :|[2 AFEG FD D2 ||
|: efdB BAFA | dffd ef d2 | efdB BAFB | AFEG FD D2 |
efdB BAFA | d2 fd efde | f2 df efdB |[1 AFEG FD D2 :|[2 AFEG FDDE |]
